public/img/CTA.svg

<svg width="220" height="105" viewBox="0 0 220 105" fill="none" xmlns="http://www.w3.org/2000/svg">
<foreignObject x="0" y="0.828125" width="220" height="104"><div xmlns="http://www.w3.org/1999/xhtml" style="backdrop-filter:blur(10px);clip-path:url(#bgblur_0_1240_22442_clip_path);height:100%;width:100%"></div></foreignObject><g filter="url(#filter0_di_1240_22442)" data-figma-bg-blur-radius="20">
<rect x="30" y="20.8281" width="160" height="44" rx="10" fill="url(#paint0_linear_1240_22442)" shape-rendering="crispEdges"/>
<rect x="30.5" y="21.3281" width="159" height="43" rx="9.5" stroke="url(#paint1_linear_1240_22442)" shape-rendering="crispEdges"/>
<rect x="30.5" y="21.3281" width="159" height="43" rx="9.5" stroke="white" stroke-opacity="0.2" shape-rendering="crispEdges"/>
<rect x="30.5" y="21.3281" width="159" height="43" rx="9.5" stroke="url(#paint2_linear_1240_22442)" stroke-opacity="0.3" shape-rendering="crispEdges"/>
<path d="M61.3979 47.8281V37.6463H62.9341V42.5085H63.0584L67.329 37.6463H69.263L65.1564 42.2301L69.2779 47.8281H67.4284L64.1373 43.2791L62.9341 44.6612V47.8281H61.3979ZM72.062 43.294V47.8281H70.5755V40.1918H72.0023V41.4347H72.0968C72.2724 41.0303 72.5475 40.7055 72.9221 40.4602C73.2999 40.215 73.7755 40.0923 74.3489 40.0923C74.8693 40.0923 75.325 40.2017 75.7161 40.4205C76.1072 40.6359 76.4105 40.9574 76.6259 41.3849C76.8413 41.8125 76.949 42.3411 76.949 42.9709V47.8281H75.4625V43.1499C75.4625 42.5964 75.3184 42.1638 75.03 41.8523C74.7417 41.5374 74.3456 41.38 73.8418 41.38C73.4971 41.38 73.1905 41.4545 72.9221 41.6037C72.6569 41.7528 72.4464 41.9716 72.2907 42.2599C72.1382 42.545 72.062 42.8897 72.062 43.294ZM82.1593 47.9822C81.4434 47.9822 80.8186 47.8182 80.285 47.4901C79.7514 47.1619 79.3371 46.7029 79.0421 46.1129C78.7471 45.523 78.5996 44.8336 78.5996 44.0447C78.5996 43.2526 78.7471 42.5599 79.0421 41.9666C79.3371 41.3733 79.7514 40.9126 80.285 40.5845C80.8186 40.2564 81.4434 40.0923 82.1593 40.0923C82.8752 40.0923 83.4999 40.2564 84.0336 40.5845C84.5672 40.9126 84.9815 41.3733 85.2765 41.9666C85.5714 42.5599 85.7189 43.2526 85.7189 44.0447C85.7189 44.8336 85.5714 45.523 85.2765 46.1129C84.9815 46.7029 84.5672 47.1619 84.0336 47.4901C83.4999 47.8182 82.8752 47.9822 82.1593 47.9822ZM82.1642 46.7344C82.6283 46.7344 83.0127 46.6117 83.3176 46.3665C83.6226 46.1212 83.848 45.7947 83.9938 45.3871C84.1429 44.9794 84.2175 44.5303 84.2175 44.0398C84.2175 43.5526 84.1429 43.1051 83.9938 42.6974C83.848 42.2865 83.6226 41.9567 83.3176 41.7081C83.0127 41.4595 82.6283 41.3352 82.1642 41.3352C81.6969 41.3352 81.3091 41.4595 81.0009 41.7081C80.696 41.9567 80.4689 42.2865 80.3198 42.6974C80.1739 43.1051 80.101 43.5526 80.101 44.0398C80.101 44.5303 80.1739 44.9794 80.3198 45.3871C80.4689 45.7947 80.696 46.1212 81.0009 46.3665C81.3091 46.6117 81.6969 46.7344 82.1642 46.7344ZM88.8013 47.8281L86.5542 40.1918H88.0904L89.5868 45.7997H89.6614L91.1628 40.1918H92.699L94.1905 45.7749H94.2651L95.7516 40.1918H97.2878L95.0456 47.8281H93.5293L91.9782 42.3146H91.8638L90.3127 47.8281H88.8013ZM102.523 37.6463H104.387L107.629 45.5611H107.748L110.99 37.6463H112.854V47.8281H111.392V40.4602H111.298L108.295 47.8132H107.082L104.079 40.4553H103.985V47.8281H102.523V37.6463ZM118.185 47.9822C117.469 47.9822 116.844 47.8182 116.31 47.4901C115.777 47.1619 115.362 46.7029 115.067 46.1129C114.772 45.523 114.625 44.8336 114.625 44.0447C114.625 43.2526 114.772 42.5599 115.067 41.9666C115.362 41.3733 115.777 40.9126 116.31 40.5845C116.844 40.2564 117.469 40.0923 118.185 40.0923C118.901 40.0923 119.525 40.2564 120.059 40.5845C120.593 40.9126 121.007 41.3733 121.302 41.9666C121.597 42.5599 121.744 43.2526 121.744 44.0447C121.744 44.8336 121.597 45.523 121.302 46.1129C121.007 46.7029 120.593 47.1619 120.059 47.4901C119.525 47.8182 118.901 47.9822 118.185 47.9822ZM118.19 46.7344C118.654 46.7344 119.038 46.6117 119.343 46.3665C119.648 46.1212 119.873 45.7947 120.019 45.3871C120.168 44.9794 120.243 44.5303 120.243 44.0398C120.243 43.5526 120.168 43.1051 120.019 42.6974C119.873 42.2865 119.648 41.9567 119.343 41.7081C119.038 41.4595 118.654 41.3352 118.19 41.3352C117.722 41.3352 117.335 41.4595 117.026 41.7081C116.721 41.9567 116.494 42.2865 116.345 42.6974C116.199 43.1051 116.126 43.5526 116.126 44.0398C116.126 44.5303 116.199 44.9794 116.345 45.3871C116.494 45.7947 116.721 46.1212 117.026 46.3665C117.335 46.6117 117.722 46.7344 118.19 46.7344ZM123.404 47.8281V40.1918H124.84V41.4048H124.92C125.059 40.9938 125.304 40.6707 125.656 40.4354C126.01 40.1967 126.411 40.0774 126.859 40.0774C126.952 40.0774 127.061 40.0807 127.187 40.0874C127.316 40.094 127.417 40.1023 127.49 40.1122V41.5341C127.431 41.5175 127.325 41.4993 127.172 41.4794C127.02 41.4562 126.867 41.4446 126.715 41.4446C126.363 41.4446 126.05 41.5192 125.775 41.6683C125.503 41.8142 125.288 42.018 125.129 42.2798C124.97 42.5384 124.89 42.8333 124.89 43.1648V47.8281H123.404ZM131.794 47.9822C131.042 47.9822 130.394 47.8215 129.85 47.5C129.31 47.1752 128.893 46.7195 128.598 46.1328C128.306 45.5429 128.16 44.8518 128.16 44.0597C128.16 43.2775 128.306 42.5881 128.598 41.9915C128.893 41.3949 129.304 40.9292 129.831 40.5945C130.361 40.2597 130.981 40.0923 131.69 40.0923C132.121 40.0923 132.538 40.1636 132.943 40.3061C133.347 40.4486 133.71 40.6723 134.032 40.9773C134.353 41.2822 134.607 41.6783 134.792 42.1655C134.978 42.6494 135.071 43.2377 135.071 43.9304V44.4574H129V43.3438H133.614C133.614 42.9527 133.534 42.6063 133.375 42.3047C133.216 41.9998 132.993 41.7595 132.704 41.5838C132.419 41.4081 132.084 41.3203 131.7 41.3203C131.282 41.3203 130.918 41.4231 130.606 41.6286C130.298 41.8307 130.059 42.0959 129.89 42.424C129.725 42.7488 129.642 43.1018 129.642 43.483V44.353C129.642 44.8634 129.731 45.2976 129.91 45.6555C130.092 46.0135 130.346 46.2869 130.671 46.4759C130.996 46.6615 131.375 46.7543 131.809 46.7543C132.091 46.7543 132.348 46.7145 132.58 46.6349C132.812 46.5521 133.012 46.4295 133.181 46.267C133.35 46.1046 133.48 45.9041 133.569 45.6655L134.976 45.919C134.864 46.3333 134.661 46.6963 134.37 47.0078C134.081 47.3161 133.718 47.5563 133.281 47.7287C132.847 47.8977 132.351 47.9822 131.794 47.9822Z" fill="white"/>
<path d="M149.333 48.1618L154.666 42.8285L149.333 37.4951" stroke="white" stroke-width="1.5" stroke-linecap="round" stroke-linejoin="round"/>
</g>
<defs>
<filter id="filter0_di_1240_22442" x="0" y="0.828125" width="220" height="104" filterUnits="userSpaceOnUse" color-interpolation-filters="sRGB">
<feFlood flood-opacity="0" result="BackgroundImageFix"/>
<feColorMatrix in="SourceAlpha" type="matrix" values="0 0 0 0 0 0 0 0 0 0 0 0 0 0 0 0 0 0 127 0" result="hardAlpha"/>
<feOffset dy="10"/>
<feGaussianBlur stdDeviation="15"/>
<feComposite in2="hardAlpha" operator="out"/>
<feColorMatrix type="matrix" values="0 0 0 0 0 0 0 0 0 0 0 0 0 0 0 0 0 0 0.2 0"/>
<feBlend mode="normal" in2="BackgroundImageFix" result="effect1_dropShadow_1240_22442"/>
<feBlend mode="normal" in="SourceGraphic" in2="effect1_dropShadow_1240_22442" result="shape"/>
<feColorMatrix in="SourceAlpha" type="matrix" values="0 0 0 0 0 0 0 0 0 0 0 0 0 0 0 0 0 0 127 0" result="hardAlpha"/>
<feOffset dy="10"/>
<feGaussianBlur stdDeviation="15"/>
<feComposite in2="hardAlpha" operator="arithmetic" k2="-1" k3="1"/>
<feColorMatrix type="matrix" values="0 0 0 0 1 0 0 0 0 0.52549 0 0 0 0 0.2 0 0 0 1 0"/>
<feBlend mode="normal" in2="shape" result="effect2_innerShadow_1240_22442"/>
</filter>
<clipPath id="bgblur_0_1240_22442_clip_path" transform="translate(0 -0.828125)"><rect x="30" y="20.8281" width="160" height="44" rx="10"/>
</clipPath><linearGradient id="paint0_linear_1240_22442" x1="110" y1="2.82813" x2="110" y2="79.3281" gradientUnits="userSpaceOnUse">
<stop stop-color="#FF6700" stop-opacity="0"/>
<stop offset="1" stop-color="#FF6700"/>
</linearGradient>
<linearGradient id="paint1_linear_1240_22442" x1="110" y1="20.8281" x2="110" y2="64.8281" gradientUnits="userSpaceOnUse">
<stop offset="0.171875" stop-color="#E1A940"/>
<stop offset="1" stop-color="#E1A940" stop-opacity="0.77"/>
</linearGradient>
<linearGradient id="paint2_linear_1240_22442" x1="110" y1="18.7656" x2="110" y2="64.8281" gradientUnits="userSpaceOnUse">
<stop stop-color="#FF6700" stop-opacity="0"/>
<stop offset="1" stop-color="#FF8633" stop-opacity="0.7"/>
</linearGradient>
</defs>
</svg>

<svg xmlns="http://www.w3.org/2000/svg" width="220" height="105" fill="none" viewBox="0 0 220 105"><foreignObject width="220" height="104" x="0" y=".828"><div xmlns="http://www.w3.org/1999/xhtml" style="backdrop-filter:blur(10px);clip-path:url(#a);height:100%;width:100%"/></foreignObject><g data-figma-bg-blur-radius="20" filter="url(#b)"><rect width="160" height="44" x="30" y="20.828" fill="url(#c)" rx="10" shape-rendering="crispEdges"/><rect width="159" height="43" x="30.5" y="21.328" stroke="url(#d)" rx="9.5" shape-rendering="crispEdges"/><rect width="159" height="43" x="30.5" y="21.328" stroke="#fff" stroke-opacity=".2" rx="9.5" shape-rendering="crispEdges"/><rect width="159" height="43" x="30.5" y="21.328" stroke="url(#e)" stroke-opacity=".3" rx="9.5" shape-rendering="crispEdges"/><path fill="#fff" d="M61.398 47.828V37.646h1.536v4.862h.124l4.271-4.862h1.934l-4.107 4.584 4.122 5.598h-1.85l-3.29-4.549-1.204 1.382v3.167zm10.664-4.534v4.534h-1.486v-7.636h1.426v1.243h.095q.262-.607.825-.975.566-.368 1.427-.368.78 0 1.367.328.587.324.91.965.323.642.323 1.586v4.857h-1.486V43.15q0-.83-.433-1.298-.432-.472-1.188-.472a1.86 1.86 0 0 0-.92.224q-.398.224-.631.656-.23.428-.229 1.034m10.097 4.688q-1.073 0-1.874-.492a3.3 3.3 0 0 1-1.243-1.377q-.442-.886-.442-2.068 0-1.188.442-2.078a3.3 3.3 0 0 1 1.243-1.383q.8-.492 1.874-.492 1.073 0 1.875.492.8.494 1.242 1.383.443.89.443 2.078 0 1.183-.442 2.068a3.3 3.3 0 0 1-1.243 1.377q-.801.492-1.875.492m.005-1.248q.696 0 1.154-.367.457-.369.676-.98.224-.612.224-1.347 0-.73-.224-1.343a2.2 2.2 0 0 0-.676-.989q-.458-.373-1.154-.373-.7 0-1.163.373a2.2 2.2 0 0 0-.681.99 4 4 0 0 0-.219 1.342q0 .736.219 1.347.224.611.68.98.464.367 1.164.367m6.637 1.094-2.247-7.636h1.536l1.497 5.608h.074l1.502-5.608h1.536l1.492 5.583h.074l1.487-5.583h1.536l-2.242 7.636h-1.517l-1.55-5.513h-.115l-1.551 5.513zm13.722-10.182h1.864l3.242 7.915h.119l3.242-7.915h1.864v10.182h-1.462V40.46h-.094l-3.003 7.353h-1.213l-3.003-7.358h-.094v7.373h-1.462zm15.662 10.336q-1.074 0-1.875-.492a3.3 3.3 0 0 1-1.243-1.377q-.442-.886-.442-2.068 0-1.188.442-2.078a3.3 3.3 0 0 1 1.243-1.383q.801-.492 1.875-.492t1.874.492a3.3 3.3 0 0 1 1.243 1.383q.442.89.442 2.078 0 1.183-.442 2.068a3.3 3.3 0 0 1-1.243 1.377q-.8.492-1.874.492m.005-1.248q.696 0 1.153-.367.457-.369.676-.98.224-.612.224-1.347 0-.73-.224-1.343a2.2 2.2 0 0 0-.676-.989q-.457-.373-1.153-.373-.701 0-1.164.373a2.2 2.2 0 0 0-.681.99 4 4 0 0 0-.219 1.342q0 .736.219 1.347.224.611.681.98.463.367 1.164.367m5.214 1.094v-7.636h1.436v1.213h.08q.208-.616.736-.97a2.1 2.1 0 0 1 1.203-.358 6 6 0 0 1 .631.035v1.422a3 3 0 0 0-.318-.055 3 3 0 0 0-.457-.034 1.94 1.94 0 0 0-.94.223 1.66 1.66 0 0 0-.885 1.497v4.663zm8.39.154q-1.128 0-1.944-.482a3.27 3.27 0 0 1-1.252-1.367q-.438-.885-.438-2.073 0-1.173.438-2.068a3.4 3.4 0 0 1 1.233-1.398q.795-.502 1.859-.502.646 0 1.253.214t1.089.671.76 1.189q.279.725.279 1.764v.527H129v-1.113h4.614q0-.587-.239-1.04a1.8 1.8 0 0 0-.671-.72 1.9 1.9 0 0 0-1.004-.264q-.627 0-1.094.309a2.07 2.07 0 0 0-.716.795 2.3 2.3 0 0 0-.248 1.059v.87q0 .765.268 1.303.273.536.761.82.487.278 1.138.278.423 0 .771-.12a1.6 1.6 0 0 0 .989-.97l1.407.255a2.55 2.55 0 0 1-.606 1.089 2.95 2.95 0 0 1-1.089.72q-.651.255-1.487.254"/><path stroke="#fff" stroke-linecap="round" stroke-linejoin="round" stroke-width="1.5" d="m149.333 48.162 5.333-5.334-5.333-5.333"/></g><defs><linearGradient id="c" x1="110" x2="110" y1="2.828" y2="79.328" gradientUnits="userSpaceOnUse"><stop stop-color="#ff6700" stop-opacity="0"/><stop offset="1" stop-color="#ff6700"/></linearGradient><linearGradient id="d" x1="110" x2="110" y1="20.828" y2="64.828" gradientUnits="userSpaceOnUse"><stop offset=".172" stop-color="#e1a940"/><stop offset="1" stop-color="#e1a940" stop-opacity=".77"/></linearGradient><linearGradient id="e" x1="110" x2="110" y1="18.766" y2="64.828" gradientUnits="userSpaceOnUse"><stop stop-color="#ff6700" stop-opacity="0"/><stop offset="1" stop-color="#ff8633" stop-opacity=".7"/></linearGradient><clipPath id="a" transform="translate(0 -.828)"><rect width="160" height="44" x="30" y="20.828" rx="10"/></clipPath><filter id="b" width="220" height="104" x="0" y=".828" color-interpolation-filters="sRGB" filterUnits="userSpaceOnUse"><feFlood flood-opacity="0" result="BackgroundImageFix"/><feColorMatrix in="SourceAlpha" result="hardAlpha" values="0 0 0 0 0 0 0 0 0 0 0 0 0 0 0 0 0 0 127 0"/><feOffset dy="10"/><feGaussianBlur stdDeviation="15"/><feComposite in2="hardAlpha" operator="out"/><feColorMatrix values="0 0 0 0 0 0 0 0 0 0 0 0 0 0 0 0 0 0 0.2 0"/><feBlend in2="BackgroundImageFix" result="effect1_dropShadow_1240_22442"/><feBlend in="SourceGraphic" in2="effect1_dropShadow_1240_22442" result="shape"/><feColorMatrix in="SourceAlpha" result="hardAlpha" values="0 0 0 0 0 0 0 0 0 0 0 0 0 0 0 0 0 0 127 0"/><feOffset dy="10"/><feGaussianBlur stdDeviation="15"/><feComposite in2="hardAlpha" k2="-1" k3="1" operator="arithmetic"/><feColorMatrix values="0 0 0 0 1 0 0 0 0 0.52549 0 0 0 0 0.2 0 0 0 1 0"/><feBlend in2="shape" result="effect2_innerShadow_1240_22442"/></filter></defs></svg>
